lib/functional/brands/microsoft-word-logo.svg

<svg xmlns="http://www.w3.org/2000/svg" fill="none" stroke="currentColor" aria-hidden="true" viewBox="0 0 32 32"><g id="Icon-MicrosoftWordLogo"><g clip-path="url(#clip0_11_3707)"><g id="size=md (32px)"><path id="Vector" stroke-linecap="round" stroke-linejoin="round" stroke-width="2" d="M19 12H26"/><path id="Vector_2" stroke-linecap="round" stroke-linejoin="round" stroke-width="2" d="M19 20H26"/><path id="Vector_3" stroke-linecap="round" stroke-linejoin="round" stroke-width="2" d="M8 9V5C8 4.73478 8.10536 4.48043 8.29289 4.29289C8.48043 4.10536 8.73478 4 9 4H25C25.2652 4 25.5196 4.10536 25.7071 4.29289C25.8946 4.48043 26 4.73478 26 5V27C26 27.2652 25.8946 27.5196 25.7071 27.7071C25.5196 27.8946 25.2652 28 25 28H9C8.73478 28 8.48043 27.8946 8.29289 27.7071C8.10536 27.5196 8 27.2652 8 27V23"/><path id="Vector_4" stroke-linecap="round" stroke-linejoin="round" stroke-width="2" d="M8 13L9.5 19L11.5 14.5L13.5 19L15 13"/><path id="Vector_5" stroke-linecap="round" stroke-linejoin="round" stroke-width="2" d="M18 9H5C4.44772 9 4 9.44772 4 10V22C4 22.5523 4.44772 23 5 23H18C18.5523 23 19 22.5523 19 22V10C19 9.44772 18.5523 9 18 9Z"/></g></g></g><defs><clipPath id="clip0_11_3707"><rect width="32" height="32" fill="white" rx="5"/></clipPath></defs></svg>

<svg xmlns="http://www.w3.org/2000/svg" fill="none" stroke="currentColor" aria-hidden="true" viewBox="0 0 32 32"><g stroke="#101828" stroke-linecap="round" stroke-linejoin="round" stroke-width="2" clip-path="url(#a)"><path d="M19 12h7m-7 8h7M8 9V5a1 1 0 0 1 1-1h16a1 1 0 0 1 1 1v22a1 1 0 0 1-1 1H9a1 1 0 0 1-1-1v-4"/><path d="m8 13 1.5 6 2-4.5 2 4.5 1.5-6"/><path d="M18 9H5a1 1 0 0 0-1 1v12a1 1 0 0 0 1 1h13a1 1 0 0 0 1-1V10a1 1 0 0 0-1-1Z"/></g><defs><clipPath id="a"><rect width="32" height="32" fill="#fff" rx="5"/></clipPath></defs></svg>
